tools/download-figma-icons/icons/solid/battery.svg

<svg width="24" height="24" viewBox="0 0 24 24" fill="none" xmlns="http://www.w3.org/2000/svg">
<path fill-rule="evenodd" clip-rule="evenodd" d="M14.9999 7.16246L12.6449 11.9474L14.7899 12.6074C14.9924 12.6674 15.0674 12.9074 14.9324 13.0724L9.52496 19.3874C9.30746 19.6499 8.87996 19.4174 8.99996 19.1024L11.2349 13.9724L9.11996 12.4199C8.97746 12.3074 8.96246 12.1049 9.08996 11.9774L14.5499 6.83996C14.7899 6.60746 15.1349 6.86321 14.9999 7.16246ZM17.6249 2.24999H16.4999V1.12499C16.4999 0.502497 15.9974 0 15.3749 0H8.62496C8.00246 0 7.49996 0.502497 7.49996 1.12499V2.24999H6.37497C5.33997 2.24999 4.49998 3.08998 4.49998 4.12498V22.1249C4.49998 23.1599 5.33997 23.9999 6.37497 23.9999H17.6249C18.6599 23.9999 19.4999 23.1599 19.4999 22.1249V4.12498C19.4999 3.08998 18.6599 2.24999 17.6249 2.24999Z" fill="black"/>
</svg>

<svg width="24" height="24" viewBox="0 0 24 24" fill="none" xmlns="http://www.w3.org/2000/svg"><path fill-rule="evenodd" clip-rule="evenodd" d="m15 7.162-2.355 4.785 2.145.66c.202.06.277.3.142.465l-5.407 6.315c-.218.263-.645.03-.525-.285l2.235-5.13L9.12 12.42a.293.293 0 0 1-.03-.443l5.46-5.137c.24-.233.585.023.45.322Zm2.625-4.912H16.5V1.125C16.5.502 15.997 0 15.375 0h-6.75C8.002 0 7.5.502 7.5 1.125V2.25H6.375C5.34 2.25 4.5 3.09 4.5 4.125v18C4.5 23.16 5.34 24 6.375 24h11.25c1.035 0 1.875-.84 1.875-1.875v-18c0-1.035-.84-1.875-1.875-1.875Z" fill="currentColor"/></svg>
